DSAA
72 37
0 355
-90 90
-2.067505459 5.302722949
0.2924693516 0.2924693516 0.2924693516 0.2924693516 0.2924693516 0.2924693516 0.2924693516 0.2924693516 0.2924693516 0.2924693516 0.2924693516 0.2924693516 0.2924693516 0.2924693516 0.2924693516 0.2924693516 0.2924693516 0.2924693516 0.2924693516 0.2924693516 0.2924693516 0.2924693516 0.2924693516 0.2924693516 0.2924693516 0.2924693516 0.2924693516 0.2924693516 0.2924693516 0.2924693516 0.2924693516 0.2924693516 0.2924693516 0.2924693516 0.2924693516 0.2924693516 0.2924693516 0.2924693516 0.2924693516 0.2924693516 0.2924693516 0.2924693516 0.2924693516 0.2924693516 0.2924693516 0.2924693516 0.2924693516 0.2924693516 0.2924693516 0.2924693516 0.2924693516 0.2924693516 0.2924693516 0.2924693516 0.2924693516 0.2924693516 0.2924693516 0.2924693516 0.2924693516 0.2924693516 0.2924693516 0.2924693516 0.2924693516 0.2924693516 0.2924693516 0.2924693516 0.2924693516 0.2924693516 0.2924693516 0.2924693516 0.2924693516 0.2924693516
0.495168618 0.4903168577 0.4840356228 0.4762895124 0.4670761125 0.4564286941 0.4444159568 0.4311387285 0.4167239026 0.4013162324 0.3850688683 0.3681336687 0.3506523275 0.3327492458 0.3145268502 0.296063777 0.2774160288 0.2586209185 0.2397033675 0.2206839409 0.2015878878 0.1824544087 0.1633453878 0.1443529035 0.1256049485 0.1072689478 0.08955282941 0.07270356403 0.05700321801 0.04276264431 0.03031296799 0.01999501998 0.01214686712 0.007089618793 0.00511179304 0.006452719228 0.01128572744 0.01970218874 0.0316977573 0.0471623456 0.06587536074 0.08750749072 0.1116298402 0.1377305113 0.165237888 0.1935490375 0.2220609174 0.2502016183 0.277458753 0.3034023841 0.3277005151 0.3501260748 0.370555347 0.3889587859 0.4053859409 0.4199467007 0.4327911848 0.4440903944 0.4540192502 0.4627430122 0.4704074286 0.4771324102 0.48300865 0.4880964473 0.4924260271 0.4959988258 0.4987894683 0.5007484092 0.5018053896 0.5018739317 0.5008570337 0.4986540635
0.4428156855 0.4343882497 0.4238818224 0.4108261624 0.3949572613 0.3762720427 0.3550470657 0.3318170968 0.3073164058 0.282392206 0.2579044643 0.2346282574 0.2131734357 0.1939318873 0.177056368 0.162468478 0.1498887599 0.1388802203 0.1288978583 0.1193398453 0.1095989831 0.09911431911 0.08742167024 0.07419906628 0.05930061108 0.04277197889 0.02484378562 0.005904836776 -0.01353635488 -0.03288914078 -0.051504825 -0.06867963907 -0.08363742535 -0.09550206301 -0.1032765488 -0.1058478298 -0.1020330378 -0.09067430707 -0.07077774475 -0.04167993103 -0.003215291756 0.04414783167 0.09923398321 0.1601745665 0.224520098 0.2894447281 0.3520190978 0.4095126148 0.4596778301 0.5009703511 0.5326682907 0.5548738077 0.5684018168 0.5745821333 0.5750161516 0.5713343317 0.5649956775 0.557157066 0.5486226794 0.5398664127 0.531106839 0.5224074204 0.5137746095 0.505232105 0.4968586013 0.4887864066 0.48116715 0.4741170727 0.4676575001 0.461666065 0.4558515174 0.4497601413
0.2107582835 0.1969729164 0.1821003644 0.1644597708 0.1428488766 0.1167987109 0.08669928793 0.05377025281 0.01987690458 -0.01277806887 -0.0420262543 -0.06608523464 -0.08380510425 -0.09475136418 -0.09911751893 -0.09751948429 -0.09076466993 -0.07969099499 -0.06513063094 -0.04798565877 -0.02933899557 -0.01049673639 0.007114292031 0.02219576332 0.0338895699 0.04201468831 0.04710431027 0.05019603088 0.05243572152 0.0546417939 0.05700005538 0.05901161806 0.05972264663 0.05816737519 0.05389077155 0.04739937347 0.04041227615 0.0358331089 0.03742319038 0.049216114 0.07476794401 0.1163778934 0.174434235 0.2470334309 0.3299846363 0.4172480218 0.5017692762 0.57657706 0.635928059 0.676245557 0.6966269203 0.6987966027 0.6865277374 0.6646976835 0.6382306271 0.6111858392 0.5861799212 0.5642189743 0.5449040441 0.5268925862 0.5084641857 0.4880480491 0.4646103145 0.4378536887 0.4082327007 0.3768217335 0.3450855875 0.3145993738 0.2867574439 0.2625087957 0.2421592651 0.2252810101
0.04200599744 0.01459322203 -0.01023903868 -0.03558583604 -0.06417763448 -0.09781986546 -0.1370085126 -0.1807361566 -0.2265580523 -0.2710102324 -0.3103754582 -0.3416026683 -0.363031388 -0.3745878347 -0.3773328373 -0.3725521307 -0.3608245264 -0.3415540296 -0.3132700796 -0.2746458901 -0.2257989114 -0.1692044839 -0.1096313625 -0.05292521851 -0.004057016686 0.03469660544 0.06455023887 0.08955483278 0.1147700927 0.1440969066 0.1786985845 0.2165679342 0.25322703 0.2831199925 0.3011565221 0.3040191617 0.2910567642 0.2646973756 0.230325615 0.1955836098 0.1691432747 0.1591337927 0.1715095576 0.2086692665 0.268617226 0.3449306869 0.4277277263 0.5056299895 0.5683586542 0.6092288058 0.6266707139 0.6241846752 0.6087550585 0.5883887434 0.5697462097 0.5566562166 0.5498038549 0.5473751638 0.5461750841 0.5427471365 0.5341914206 0.5185667156 0.4949148441 0.4630586513 0.4233833514 0.3767723523 0.3247226751 0.2694859558 0.2139964307 0.1614377329 0.1145211843 0.07475211385
0.07787046924 0.02974219592 -0.009090933409 -0.04294412892 -0.07626111745 -0.113350236 -0.1580578805 -0.2128056336 -0.2772950117 -0.3479077953 -0.4186233466 -0.483220261 -0.5375190911 -0.5803137211 -0.6124834644 -0.6348749705 -0.6461621214 -0.6418444257 -0.6150775799 -0.5593635054 -0.4722959991 -0.3587213888 -0.2313680676 -0.1078174823 -0.004574017164 0.06908830763 0.114281068 0.140920992 0.1623732887 0.1893799882 0.2263984287 0.2715692616 0.3191751203 0.3623631818 0.3946426506 0.410282488 0.4047165787 0.3756887165 0.3247355236 0.2579268794 0.185180128 0.1184259104 0.06942555818 0.04772807728 0.0587144359 0.1017679305 0.1693752574 0.248441634 0.3243183968 0.3861872806 0.4309798782 0.4634107527 0.4920081788 0.5236076699 0.5596496765 0.5961671605 0.6268002498 0.6464972452 0.653754302 0.6506887754 0.6415451341 0.6306033043 0.6201948564 0.6093390418 0.5935751977 0.5664362042 0.5222971564 0.4593667653 0.381190305 0.2957107282 0.2123287383 0.1385450045
0.2729691941 0.2193757616 0.18049162 0.1507712416 0.1256778899 0.09918143824 0.06217647282 0.004787530378 -0.07839061155 -0.1844597214 -0.3034173711 -0.4236472379 -0.5372263318 -0.6411031634 -0.7341498997 -0.8133191694 -0.8718415935 -0.8998454953 -0.8862332765 -0.8213595576 -0.7010799359 -0.5317377525 -0.333125377 -0.1355240031 0.0301225923 0.1445318619 0.2073770307 0.2344647954 0.2465717992 0.2576895865 0.2704840737 0.2807169533 0.2852644371 0.2861928219 0.2877408007 0.2898621095 0.285045559 0.2618800192 0.2125580985 0.1381824785 0.04826642485 -0.04370224149 -0.1240002057 -0.1795429884 -0.1981960479 -0.1719031505 -0.1021418959 -0.00260828971 0.1056792566 0.2055866165 0.2935896765 0.3799080745 0.4780800316 0.591737213 0.7088440136 0.8076145433 0.8691385938 0.8874128722 0.8709723831 0.8373490988 0.8055333254 0.7901794754 0.7978657822 0.8246616472 0.8559675484 0.8706901884 0.8497204285 0.7849038159 0.6831571839 0.5630510833 0.4460188144 0.3475320283
0.5764246412 0.5419798554 0.5186428926 0.5013428553 0.4894209197 0.4786960703 0.4557830236 0.4025170638 0.3083136693 0.1786883059 0.03058250286 -0.1215548176 -0.2750763046 -0.4347559337 -0.5999922015 -0.7570986634 -0.8839243814 -0.9610902979 -0.9787238854 -0.934457505 -0.8287510226 -0.6657127748 -0.459736606 -0.2394874836 -0.04095869606 0.1087609759 0.20499169 0.2640814671 0.3068144709 0.3400644309 0.3526753968 0.3293018622 0.2694893699 0.1939066634 0.1308468366 0.0941041986 0.07172771467 0.03591373208 -0.03446958783 -0.138132756 -0.2544742587 -0.3594926642 -0.4378003606 -0.4812069815 -0.4806121374 -0.4251239225 -0.3126490396 -0.1606529224 -0.002019333754 0.1355941775 0.2506170972 0.3686339803 0.5197353006 0.710017686 0.9115427004 1.079156752 1.179297858 1.20747611 1.184194785 1.138664568 1.096124069 1.074517757 1.084074956 1.123127113 1.173354066 1.203542994 1.184477054 1.105805296 0.9821530394 0.8442447843 0.722317534 0.6330417956
1.017259614 0.9916335264 0.9730278058 0.9581960413 0.9478839359 0.9380089774 0.9117758343 0.8468303285 0.7353917054 0.5953108154 0.4550213254 0.3243925991 0.1826425826 -0.001124068096 -0.2335296399 -0.48250379 -0.6965090098 -0.8383893049 -0.9032859524 -0.9084363884 -0.8694917559 -0.7874288399 -0.6565936005 -0.4830301952 -0.2924713183 -0.1175854214 0.02451413835 0.141374374 0.2493036158 0.3468974765 0.4060175107 0.3929613874 0.3022486547 0.1705025513 0.05386149395 -0.01469766466 -0.0515018966 -0.1072238689 -0.2222386528 -0.3913461439 -0.5682347728 -0.701890514 -0.7681881611 -0.7699080861 -0.714406237 -0.5996838618 -0.4250843207 -0.2113334929 -0.001522739339 0.1661737393 0.2914042315 0.4161424225 0.5904764187 0.8275309022 1.088922572 1.314115399 1.464757518 1.543179524 1.574407319 1.578314307 1.562208924 1.534298884 1.512975169 1.515099252 1.535892208 1.546389281 1.515361196 1.434661254 1.323699968 1.21228826 1.121527472 1.057803494
1.555281031 1.496096708 1.468500104 1.463712583 1.464792341 1.45253753 1.403297102 1.298059783 1.144537795 0.9825343811 0.8523256847 0.7517295968 0.6293597208 0.4273200369 0.1348796831 -0.1966731863 -0.4894573596 -0.6910026208 -0.8001157304 -0.8518968785 -0.8803325035 -0.8894071509 -0.8539018754 -0.7483092417 -0.578188745 -0.3823803155 -0.2011629939 -0.04372331945 0.1075631138 0.259822242 0.3826641807 0.424741047 0.3601512717 0.2195465534 0.07377732838 -0.02047997016 -0.06816349364 -0.1315074452 -0.2720859314 -0.4901291355 -0.7188528538 -0.8774118039 -0.9277840228 -0.883806645 -0.7766460637 -0.6222815985 -0.4226067009 -0.1890201271 0.04557666406 0.2455091119 0.4058308033 0.5631902986 0.7644383806 1.019212819 1.286650267 1.512986553 1.679225925 1.806281201 1.916010336 1.998432624 2.025161685 1.991219096 1.932805943 1.897545846 1.900359529 1.91490609 1.907725205 1.872255378 1.824557264 1.774197124 1.713213108 1.635579028
2.040060041 1.927328944 1.906211464 1.951555333 2.008536715 2.023923976 1.95852036 1.80221751 1.590646025 1.388735857 1.23692412 1.111826461 0.9465671493 0.6910913078 0.353834204 -0.006985029328 -0.3241223615 -0.5568826091 -0.702670003 -0.7887471945 -0.8514737379 -0.9069273257 -0.9306127122 -0.8750531723 -0.7215707027 -0.5112369924 -0.3108187108 -0.1488521741 0.0006316793557 0.168759639 0.3394712016 0.4528692109 0.4548504554 0.3432864222 0.174202851 0.02174919787 -0.08215576554 -0.1750578195 -0.3215212221 -0.5365696033 -0.7578414147 -0.8980516526 -0.9173290857 -0.8406083139 -0.7171576578 -0.5759622873 -0.4153024173 -0.2218018141 0.005964789626 0.2516420846 0.4986391103 0.7489508507 1.013274874 1.280175716 1.510654355 1.677341075 1.80113751 1.930559793 2.081470392 2.21097427 2.261553061 2.227625336 2.169668171 2.159687023 2.217128806 2.302886322 2.371234714 2.412638522 2.437129389 2.430903916 2.357288688 2.209031555
2.413847818 2.265786648 2.255537259 2.352521042 2.480539168 2.551643213 2.494342992 2.297677757 2.031915757 1.791100506 1.602294175 1.409314047 1.148295039 0.8174468856 0.4666718285 0.1412976857 -0.1456397544 -0.3935515827 -0.5894149014 -0.7186642939 -0.7951563818 -0.8538968266 -0.8983110141 -0.8770493059 -0.7435320665 -0.527546813 -0.3130064279 -0.1459944412 0.001639278481 0.1730467371 0.3621024411 0.5163121672 0.5768508492 0.5090472879 0.3235654474 0.08216915469 -0.1418184846 -0.325400875 -0.5007947123 -0.6882814535 -0.8485932725 -0.9215934753 -0.894175076 -0.8082078409 -0.7122736165 -0.6229111049 -0.5221541516 -0.3739845672 -0.1489669911 0.1515840083 0.4961565083 0.8496346745 1.186495794 1.475328801 1.678835387 1.794390163 1.879189051 2.002660523 2.16958448 2.310670158 2.358583754 2.324452523 2.293188365 2.347124397 2.496764397 2.682962667 2.83973303 2.944174345 2.999549011 2.987176284 2.869122295 2.65052818
2.79667954 2.633463827 2.580400338 2.638341388 2.770937403 2.884243073 2.854515683 2.63616641 2.322229664 2.043731363 1.822727494 1.575576939 1.246663482 0.8782287695 0.5430891244 0.2581670977 -0.01375919613 -0.2975603341 -0.5598013721 -0.7374403719 -0.8146974565 -0.8477612993 -0.8850755905 -0.8878810801 -0.7800453472 -0.5626200161 -0.3185475723 -0.1063932155 0.08729814642 0.2833075031 0.4606398859 0.5882107429 0.6483361128 0.6087007526 0.4278793039 0.1217184432 -0.2184950624 -0.5064462182 -0.7256081604 -0.8895854079 -0.9825227635 -0.9829395169 -0.9184592101 -0.8488254546 -0.8017849347 -0.7548396565 -0.6675357914 -0.505247542 -0.2471928605 0.09770706962 0.488083133 0.879605349 1.243949016 1.549780503 1.760238256 1.88202325 1.991094646 2.163621793 2.383178549 2.55079843 2.59445711 2.548600417 2.521844027 2.602770997 2.798991091 3.0475316 3.268835892 3.412999624 3.463807906 3.414034393 3.260293838 3.030854702
3.285292805 3.115563017 2.958701387 2.866124889 2.8964471 2.99837773 3.002061506 2.792325347 2.443286212 2.11058045 1.838999902 1.560439738 1.237422512 0.9078544767 0.6025229448 0.3014506689 -0.02392374605 -0.3675028301 -0.6778961895 -0.8790915235 -0.9402618571 -0.9291826762 -0.9385330199 -0.9576181366 -0.8881227989 -0.6874140163 -0.4142784599 -0.1304511714 0.1501065485 0.4001575783 0.5623469993 0.6234775084 0.6253111254 0.5699898951 0.3920636815 0.06807736835 -0.310596432 -0.6245203975 -0.8367506532 -0.971258101 -1.033360415 -1.016559788 -0.9569848776 -0.9111213858 -0.8835640436 -0.8242115832 -0.6903630663 -0.4732749954 -0.1776629045 0.1820129271 0.5712667424 0.9533332607 1.307023515 1.607373747 1.821512279 1.963262638 2.122000989 2.378222257 2.692246542 2.926249325 2.990766967 2.938206271 2.901623147 2.973334842 3.158786028 3.410544728 3.663583576 3.847017535 3.904953917 3.828268819 3.660859524 3.466849074
3.805615757 3.636531538 3.383286844 3.115809887 2.978203383 2.999342489 3.014953943 2.846574186 2.499981331 2.107878311 1.749536851 1.429240846 1.15747859 0.9289602908 0.6708918588 0.3197042416 -0.09100437419 -0.4833063381 -0.8074909497 -1.017061191 -1.072801841 -1.027281252 -1.00383898 -1.037813018 -1.028828549 -0.883640195 -0.6130227587 -0.2700105895 0.1000724134 0.4213924888 0.6022618881 0.6280595103 0.5647654296 0.4447270503 0.2252143199 -0.1056228565 -0.4535428084 -0.7047366494 -0.8440180941 -0.9327413593 -1.00219484 -1.030990379 -1.009650662 -0.9587950597 -0.8804516226 -0.7489355405 -0.5573386043 -0.3238502381 -0.04770155829 0.2928210023 0.6908848527 1.097776514 1.460607837 1.744042218 1.932618903 2.06067827 2.229007944 2.524808818 2.903077353 3.200208707 3.30469172 3.28038301 3.281748907 3.384920735 3.559702034 3.771037871 4.01326533 4.239060539 4.346750026 4.283390038 4.112845813 3.943013791
4.231661048 4.048391825 3.748233336 3.377011339 3.09523218 2.996128062 2.973108119 2.836402123 2.519144488 2.091917721 1.647905326 1.275726274 1.052317174 0.9350841204 0.7460248529 0.3761131607 -0.08554223697 -0.5040465415 -0.8455648705 -1.094267383 -1.18662763 -1.134373768 -1.074592029 -1.098145302 -1.130788313 -1.044642398 -0.7946527444 -0.415959738 0.01533295872 0.3886162743 0.6032020602 0.6354269597 0.5267011571 0.3138353121 0.01360700704 -0.3300574206 -0.6295329175 -0.811565104 -0.885839669 -0.9309504254 -0.9999771447 -1.061852024 -1.05133872 -0.9451098887 -0.7655815151 -0.5478167812 -0.3305874523 -0.1370302207 0.06969172273 0.3701661545 0.791269583 1.255403787 1.652636638 1.932575377 2.111291015 2.23985857 2.399302578 2.667511139 3.023544146 3.323363689 3.453918728 3.487556326 3.588376611 3.787122141 3.974026684 4.110046872 4.287493298 4.537897655 4.727237028 4.722422686 4.560909877 4.378781802
4.531815318 4.28518513 3.954926369 3.572368898 3.249961475 3.070922662 2.973051165 2.804361874 2.484115826 2.042761526 1.560364615 1.157001929 0.9483354356 0.8881726676 0.755398461 0.4096569236 -0.05608273616 -0.4976101957 -0.8854453583 -1.198665331 -1.342901712 -1.29515724 -1.185424568 -1.13529791 -1.116130281 -1.015282644 -0.7600701026 -0.365159608 0.07238809414 0.4259737354 0.6205785171 0.643767548 0.49528543 0.1958081815 -0.1704353167 -0.500175756 -0.7475575732 -0.910910621 -0.9934436996 -1.02483868 -1.05553898 -1.078744954 -1.018716092 -0.8323279362 -0.5664540526 -0.2992175026 -0.07786641248 0.09232530163 0.2607849045 0.5210509617 0.9205276031 1.386892522 1.797718632 2.106642932 2.348908053 2.556822958 2.748159669 2.968358251 3.239191747 3.480109126 3.605118772 3.69081548 3.892037967 4.181875507 4.367304038 4.404503241 4.486889831 4.735809426 5.000312225 5.072472854 4.943074223 4.739910229
4.741596822 4.407335086 4.036698569 3.692380836 3.429808042 3.256546841 3.096338288 2.843140897 2.466502617 2.010686023 1.532045186 1.117619711 0.8745523981 0.7819274134 0.64958503 0.3355127549 -0.1033211758 -0.5501466084 -0.9632839852 -1.297462813 -1.458635023 -1.424076473 -1.286241115 -1.133208387 -0.9734414954 -0.7698775014 -0.4794196721 -0.1023078113 0.2688838373 0.5196470957 0.6292352069 0.6208438077 0.4539733889 0.1114961226 -0.2753499119 -0.5530313522 -0.729457554 -0.8898509232 -1.024744634 -1.081384774 -1.081454995 -1.053467411 -0.9436905886 -0.707268929 -0.4046147311 -0.125014665 0.1098843748 0.3177380884 0.5151291529 0.745056975 1.064374525 1.466901465 1.882000181 2.265476235 2.623205582 2.941106518 3.182481161 3.366931222 3.549881072 3.715162304 3.816763801 3.930791687 4.18425125 4.503688044 4.656586509 4.611656627 4.623372957 4.857289942 5.154367402 5.279083284 5.198462449 5.005403588
4.872047054 4.510524087 4.124261016 3.81510075 3.616141007 3.473825367 3.280220343 2.957867991 2.529001253 2.060846038 1.586066803 1.147754414 0.8331233096 0.6523367 0.4739549687 0.181548491 -0.1993150141 -0.5901208244 -0.9495732603 -1.230618484 -1.376561605 -1.387139742 -1.292880229 -1.093516126 -0.8034609105 -0.4837913883 -0.1667174533 0.1479259194 0.4018512891 0.5271652576 0.5666333683 0.5733259207 0.4552881503 0.1298259896 -0.2555254327 -0.488285837 -0.5857626321 -0.7040856128 -0.8608105442 -0.9617416878 -0.9939757907 -0.9915171934 -0.9049479681 -0.6769268991 -0.3679469004 -0.07809830837 0.179246604 0.431477586 0.662243749 0.8652791171 1.111591928 1.476302972 1.940515086 2.421645593 2.85512042 3.203428696 3.444809126 3.602743885 3.730687117 3.839609705 3.922462386 4.055042568 4.324706078 4.631860635 4.757095894 4.690479916 4.684763348 4.89422361 5.16954463 5.302722949 5.268253458 5.125128592
4.881535357 4.590568058 4.254389784 3.967341256 3.770186008 3.615444646 3.401462436 3.065246478 2.63451031 2.159702529 1.655591556 1.165267816 0.7835025177 0.5315421438 0.3064768665 0.02579914483 -0.2825611364 -0.5722196599 -0.8354651628 -1.049740673 -1.184562485 -1.246181036 -1.21834819 -1.030890674 -0.6838509404 -0.3015829958 0.01026060085 0.2392787235 0.3774922504 0.4258308137 0.4717189991 0.5602454492 0.5379130918 0.2572407838 -0.1350515612 -0.3659039826 -0.4127705494 -0.4653232205 -0.5996270405 -0.7339118139 -0.8272432957 -0.8932453956 -0.8743448215 -0.6935804765 -0.3930787192 -0.08490758152 0.1885396225 0.4418022946 0.6601232025 0.8388456728 1.064802122 1.44585956 1.964966768 2.484238596 2.891142157 3.176598256 3.380530277 3.531810097 3.645286276 3.732250413 3.822999597 3.988368883 4.268443478 4.560305738 4.694075312 4.668343202 4.675926363 4.83601622 5.044949825 5.155250385 5.149429538 5.063640763
4.715194015 4.529195058 4.290178239 4.045996107 3.844944376 3.675045413 3.462158718 3.150152467 2.74325073 2.253127012 1.689434883 1.135160411 0.7148661857 0.4372374414 0.1871485034 -0.09397651334 -0.3553436795 -0.5746479055 -0.7917505874 -0.9974532522 -1.132511618 -1.178870818 -1.128099972 -0.9236943285 -0.5617345348 -0.1708808264 0.1115687436 0.2604715622 0.3173825446 0.3475911421 0.4416868769 0.5956135628 0.6177766712 0.3521293599 -0.04980110294 -0.293508691 -0.3270932037 -0.3451740614 -0.4641203515 -0.6166145605 -0.7319493382 -0.809887076 -0.819133664 -0.6903345598 -0.4264878372 -0.1131382752 0.1807111909 0.4357309082 0.6425609138 0.8172530567 1.043980187 1.409844873 1.880797411 2.316068922 2.626671642 2.851326828 3.055731814 3.23684091 3.36800852 3.474644648 3.61916195 3.842163293 4.12771497 4.396481645 4.555298999 4.597422412 4.621803196 4.710938178 4.833684241 4.90785442 4.903116213 4.836697083
4.386659623 4.264295769 4.113130385 3.940778619 3.789313934 3.656312381 3.475179075 3.195369302 2.81299401 2.316928201 1.711736098 1.107623059 0.6545406606 0.3593497606 0.09988247399 -0.174331849 -0.4107294584 -0.6144213927 -0.8550415011 -1.104209094 -1.237519579 -1.202315508 -1.039129563 -0.7673662507 -0.3983721309 -0.02875374953 0.213820436 0.3016213035 0.3131491569 0.3499560896 0.465096269 0.5911391167 0.5494506348 0.2502075732 -0.1375106514 -0.3553460218 -0.3716650061 -0.3794813079 -0.5044969679 -0.6768351427 -0.7900859266 -0.8313552551 -0.8187871905 -0.7259359456 -0.5219541661 -0.228401896 0.09638802949 0.3971639491 0.6407761298 0.8368776072 1.046809636 1.32721695 1.652861877 1.942719433 2.173389761 2.402077708 2.655189658 2.875800462 3.028700046 3.179013458 3.402865181 3.681825223 3.944387712 4.156305065 4.317364134 4.422446004 4.480188945 4.530327492 4.594010392 4.633501527 4.600365563 4.502855041
4.010372486 3.918829373 3.820570397 3.700077302 3.589848651 3.483161599 3.318015204 3.062727537 2.726931059 2.285997761 1.712254809 1.093141804 0.5881524225 0.2457227224 -0.01581258072 -0.2474513155 -0.4359227562 -0.6225349692 -0.88052717 -1.154049983 -1.278117768 -1.181786691 -0.9401982426 -0.6308077804 -0.2799670709 0.04855087113 0.2523822233 0.3089884428 0.3099040442 0.3540908339 0.4417357946 0.4659028532 0.3049418462 -0.03456650242 -0.3714322662 -0.5133826707 -0.469332954 -0.4284637097 -0.5276452572 -0.7173400285 -0.8664671952 -0.9156517109 -0.8871685661 -0.8012162072 -0.6402245613 -0.386842545 -0.06478532291 0.2646962186 0.542540597 0.7554852119 0.942899596 1.148119524 1.36740936 1.574353009 1.785776632 2.04550491 2.332739162 2.563242781 2.717680709 2.88870352 3.143949209 3.418770286 3.616495618 3.746650459 3.881781989 4.033896824 4.161376052 4.255618163 4.330775752 4.354940369 4.281496386 4.139350027
3.69401409 3.656993839 3.600243982 3.482741476 3.335071293 3.172174327 2.968808572 2.725221746 2.458727302 2.122108139 1.639209536 1.045531013 0.4925700264 0.08751796611 -0.1816968176 -0.360901567 -0.4832402245 -0.6147159805 -0.8178242019 -1.038308731 -1.133539893 -1.03908577 -0.8185551063 -0.5478213007 -0.2559685639 0.0101962623 0.1750525093 0.2264843611 0.2428827332 0.2882568735 0.3232298898 0.2467937532 0.009600316098 -0.3161659513 -0.5698781342 -0.6258167401 -0.5107727768 -0.3909879575 -0.4214654885 -0.6082592881 -0.8227292029 -0.9339347408 -0.9090984019 -0.7957819112 -0.6396594888 -0.4429710531 -0.1961992832 0.07665386724 0.3256720942 0.5271411888 0.7090637475 0.9105390397 1.131060772 1.348146195 1.572887589 1.837363483 2.120483267 2.348953952 2.500640255 2.644233232 2.832230477 3.016539031 3.130695289 3.202550553 3.314457569 3.49029938 3.689046041 3.872569169 4.008100093 4.039494898 3.942305577 3.791672681
3.42772055 3.469083423 3.458261987 3.332833491 3.128823861 2.897944714 2.658062735 2.423216785 2.197410668 1.922486389 1.512691153 0.9731320444 0.4243827302 -0.01324338548 -0.3072479561 -0.4816322248 -0.5730076562 -0.6372683846 -0.7273534719 -0.8298468438 -0.8714117806 -0.8067519482 -0.6577194351 -0.4651065208 -0.2594696816 -0.08461248987 0.01421389409 0.04606461334 0.06797667234 0.1007406407 0.08985804914 -0.02768835969 -0.2431442897 -0.4742059108 -0.6210730757 -0.6239577304 -0.5055000623 -0.3789266015 -0.381577746 -0.5561823284 -0.7959771087 -0.9339086891 -0.8937498323 -0.7388787501 -0.5753638755 -0.4381136601 -0.2897199856 -0.103738307 0.09441686967 0.2753554326 0.4568421737 0.6762724252 0.9296846261 1.177772802 1.411082096 1.663913716 1.946317396 2.204355607 2.379730883 2.478136275 2.545738079 2.607022292 2.664298916 2.735217525 2.848652326 3.013751473 3.218282873 3.434341495 3.600894387 3.642641079 3.556657019 3.4494639
3.158457301 3.238020943 3.244148312 3.127114441 2.932838783 2.724625698 2.520412032 2.308368864 2.070426835 1.773730573 1.384234587 0.9154996742 0.4376850964 0.02284023336 -0.2951001081 -0.5038992501 -0.5988924314 -0.6055481879 -0.583415099 -0.5796031653 -0.5901841759 -0.5784835601 -0.5180900225 -0.4154955827 -0.3093758608 -0.2487915206 -0.2509111861 -0.2795494926 -0.2877154631 -0.2804550081 -0.3088949982 -0.3994557323 -0.5173067482 -0.6072982751 -0.6436522554 -0.6303763305 -0.5875856882 -0.5624749304 -0.6222914436 -0.788369477 -0.9791257047 -1.061970028 -0.9811932949 -0.8103110281 -0.6601832065 -0.5583733044 -0.4466306854 -0.2808524359 -0.08904163439 0.08204955652 0.2403957681 0.4333868679 0.6743529844 0.9267443174 1.167581855 1.425565301 1.727386166 2.029979306 2.243787851 2.323552526 2.313926183 2.304191783 2.353396302 2.459173469 2.584750304 2.708791561 2.844312607 3.00009039 3.13421209 3.182453023 3.146384179 3.11422801
2.910854747 2.962045355 2.929960994 2.808902146 2.655785482 2.517993849 2.381993181 2.199124592 1.939432825 1.609798964 1.237714596 0.8524178542 0.4746679519 0.1181496068 -0.1925964411 -0.4089037343 -0.4856239712 -0.4363297042 -0.3474758134 -0.3175783479 -0.3781816072 -0.4783210266 -0.5443321073 -0.5519629143 -0.5428367403 -0.5739534082 -0.6543440289 -0.738295391 -0.7826623883 -0.7964272217 -0.8189168882 -0.8597618685 -0.8860011963 -0.8714483088 -0.8348599227 -0.8176581064 -0.8430362443 -0.9121538226 -1.020304634 -1.14734686 -1.239307657 -1.236213018 -1.134115599 -0.9972557438 -0.8873356841 -0.7934457438 -0.6564150466 -0.4573401808 -0.2509839177 -0.09815540751 0.01193960353 0.1468080336 0.3482339734 0.594777806 0.8503876388 1.117557452 1.414649542 1.714108279 1.939174578 2.037136125 2.041940108 2.048439468 2.124874566 2.257956556 2.384304069 2.466323946 2.525184821 2.598538449 2.684944704 2.751934968 2.792403195 2.839654047
2.722422249 2.736449937 2.65730871 2.511372465 2.357394844 2.228590928 2.101026801 1.923603601 1.672380993 1.37012429 1.057935312 0.7561121192 0.45596698 0.1505380702 -0.1276096882 -0.3079261039 -0.3375937139 -0.2458879663 -0.1463947637 -0.1590782355 -0.3180134474 -0.5515196414 -0.7519604406 -0.8659748021 -0.9216367147 -0.9774700695 -1.056105988 -1.132438846 -1.177893843 -1.198491158 -1.220393777 -1.249193753 -1.261699476 -1.240318298 -1.201365167 -1.180563812 -1.197946818 -1.244571383 -1.295968293 -1.32693993 -1.318291042 -1.266718411 -1.19339351 -1.128094824 -1.072335954 -0.9868771115 -0.8332052862 -0.6282567849 -0.4409201594 -0.3228095441 -0.2504680913 -0.1486962861 0.03183010828 0.273141176 0.5254397308 0.7646314828 0.9994290113 1.230890331 1.429641035 1.565845374 1.651780812 1.737943336 1.862207154 2.010461529 2.134121341 2.203318062 2.235364141 2.27140378 2.336012453 2.426752541 2.532234365 2.639947802
2.527630262 2.546678035 2.471069638 2.32041993 2.137684005 1.953868692 1.768922354 1.566125889 1.339630184 1.102370697 0.867533816 0.6291467645 0.3696887239 0.09250847323 -0.1549881503 -0.3010642594 -0.3076404777 -0.2183304087 -0.1457460573 -0.197530234 -0.3994985028 -0.6816717437 -0.9374934829 -1.101532768 -1.179942426 -1.218638697 -1.252381453 -1.285720055 -1.312761581 -1.340298902 -1.383993448 -1.446815902 -1.510709966 -1.55229547 -1.562367978 -1.54746296 -1.516692445 -1.472589275 -1.414487254 -1.346681043 -1.281727759 -1.236446863 -1.221452966 -1.227508884 -1.22034317 -1.157960027 -1.025173902 -0.8536160067 -0.6991719176 -0.5910926153 -0.5033035181 -0.3806323949 -0.1943917774 0.03076673096 0.2444206479 0.4186428794 0.5656673372 0.7139111358 0.8770452796 1.049753953 1.225337542 1.405868955 1.591707237 1.767570298 1.907224093 1.994679598 2.03927993 2.069908393 2.116708395 2.197060655 2.310100671 2.433989313
2.221590452 2.254146374 2.209490893 2.082276272 1.890877077 1.66370961 1.426133194 1.196123715 0.9848275624 0.7941219013 0.6119505371 0.4155550061 0.1888788954 -0.05552673708 -0.271313962 -0.4027909012 -0.4267151915 -0.378879309 -0.3394756562 -0.3833661603 -0.5320384627 -0.7442329674 -0.9502000811 -1.09922584 -1.183348744 -1.225799834 -1.253758689 -1.282390675 -1.318286866 -1.36893919 -1.442898726 -1.540527609 -1.647447717 -1.738992362 -1.791726739 -1.792672543 -1.742033609 -1.651898064 -1.543879672 -1.445200856 -1.381449093 -1.366634822 -1.394490157 -1.436830766 -1.453597712 -1.412869171 -1.309422502 -1.166486041 -1.015951965 -0.8720381437 -0.7224844658 -0.546614951 -0.3429436641 -0.1382192557 0.032205603 0.1541835306 0.2469347711 0.3482066002 0.4882763585 0.6750003912 0.8970144443 1.135039652 1.36906449 1.579425744 1.74787221 1.862611412 1.924579029 1.949597345 1.963974298 1.994600191 2.056406237 2.142150834
1.768807272 1.774009599 1.726813331 1.610921666 1.429255945 1.20215036 0.9591512185 0.7284831486 0.5275296278 0.3570993883 0.2024795053 0.04296015913 -0.1331910235 -0.3169744476 -0.4796559796 -0.5888299377 -0.6304332408 -0.6212043815 -0.6014403002 -0.6121514249 -0.6725948293 -0.7735611193 -0.8891272205 -0.9957959099 -1.084499515 -1.159465416 -1.229426626 -1.300777093 -1.377035261 -1.461360329 -1.556653413 -1.661897269 -1.768348331 -1.859856602 -1.918143142 -1.930257686 -1.894507562 -1.822449019 -1.736227191 -1.661843678 -1.620148598 -1.618596294 -1.647366061 -1.682416044 -1.69511227 -1.664211883 -1.583604907 -1.461022642 -1.309031223 -1.135827099 -0.9437316505 -0.7362743209 -0.5261530434 -0.3346300204 -0.1805057468 -0.06686448792 0.02336604656 0.1190697154 0.2460108632 0.4155961702 0.6230062352 0.8525901968 1.084571514 1.299177499 1.478623374 1.609445894 1.686284011 1.715400092 1.714696655 1.708025194 1.71483062 1.739827104
1.169277409 1.131356973 1.057326711 0.9377107586 0.773624349 0.5776370364 0.3698235433 0.1707477758 -0.005618337556 -0.1559433936 -0.2865920859 -0.4079391942 -0.5267402717 -0.6408344316 -0.7395497898 -0.8099141216 -0.84501173 -0.8492360918 -0.8371489211 -0.8269196929 -0.8327677021 -0.8609401663 -0.9106949348 -0.9781647031 -1.059662406 -1.152542047 -1.254298216 -1.361796542 -1.471648782 -1.581077283 -1.687944753 -1.789498587 -1.880793748 -1.954343862 -2.001838128 -2.017392137 -2.000767626 -1.958863519 -1.904495942 -1.852644871 -1.815470115 -1.798047994 -1.796628571 -1.80020488 -1.794673855 -1.767593662 -1.711310883 -1.623357849 -1.504882718 -1.359116755 -1.19141393 -1.010480503 -0.8287087346 -0.6597399453 -0.5135890819 -0.3920446521 -0.2874603708 -0.1859919433 -0.07346139826 0.05937050861 0.2143939179 0.3866838461 0.5665233246 0.7415315922 0.8986065672 1.02618378 1.11701476 1.170611288 1.193748901 1.197855448 1.193724572 1.185830842
0.4353074355 0.390404329 0.3188125336 0.2195693676 0.09584523929 -0.04485569941 -0.1921927836 -0.3356404412 -0.4672012563 -0.5830291578 -0.6832921078 -0.770427413 -0.8467257888 -0.9125114701 -0.9658519243 -1.003882727 -1.024945714 -1.030336237 -1.024764251 -1.015417906 -1.010246668 -1.016315223 -1.038776045 -1.080501037 -1.142102624 -1.222109329 -1.317267872 -1.42304628 -1.534302521 -1.645899383 -1.753011724 -1.851067456 -1.935550867 -2.002044427 -2.046762605 -2.067505459 -2.064635054 -2.041552662 -2.00430583 -1.960309334 -1.916550281 -1.877881028 -1.845972506 -1.819220461 -1.793508066 -1.763429793 -1.723522329 -1.669230169 -1.597597561 -1.507809588 -1.401600233 -1.283314469 -1.159307397 -1.036566923 -0.9208830359 -0.8152517392 -0.7191973057 -0.6292846388 -0.5405384014 -0.4481429726 -0.3488368338 -0.2417148326 -0.1284407556 -0.01297314636 0.09913873382 0.2018459999 0.2898982013 0.3599470161 0.4109576695 0.4436312323 0.4590128457 0.4569557738
-0.3141666116 -0.3375792839 -0.3772694698 -0.4320926372 -0.4995995238 -0.5761958551 -0.6576091172 -0.7395456003 -0.8183325591 -0.891337456 -0.9570449376 -1.014814622 -1.064473726 -1.105956555 -1.139161463 -1.164077913 -1.181102246 -1.191375726 -1.196977179 -1.200873718 -1.206631356 -1.217964414 -1.238233772 -1.269994435 -1.314663926 -1.372351553 -1.441859158 -1.520834214 -1.606028745 -1.693603179 -1.779423462 -1.859330627 -1.929397241 -1.986201144 -2.027130277 -2.050689878 -2.056739103 -2.04656616 -2.022734565 -1.988692755 -1.948211223 -1.904766032 -1.861003757 -1.818397166 -1.777147607 -1.736331784 -1.694246055 -1.648876427 -1.59841093 -1.541704379 -1.478603164 -1.410049687 -1.337924762 -1.264651873 -1.192660185 -1.123852199 -1.059221831 -0.9987179959 -0.9413708186 -0.8856257018 -0.8297882831 -0.772474441 -0.7129734205 -0.6514574931 -0.5890048563 -0.5274448447 -0.4690813612 -0.4163857205 -0.3717528435 -0.337374697 -0.3152152114 -0.307006579
-0.8799539054 -0.8910321159 -0.9085119705 -0.9319679336 -0.9606416625 -0.9935037855 -1.029348275 -1.066903875 -1.104942874 -1.142369212 -1.178275193 -1.211966456 -1.242964264 -1.270999112 -1.296008254 -1.318143024 -1.337782771 -1.355544644 -1.372275334 -1.389013158 -1.406915441 -1.427154729 -1.450795094 -1.478664894 -1.511243713 -1.548579104 -1.590244042 -1.635339967 -1.68254445 -1.730197871 -1.776420625 -1.819250977 -1.856793017 -1.887363383 -1.909624252 -1.922689032 -1.926187416 -1.920279169 -1.905611759 -1.883225166 -1.854416177 -1.820582036 -1.783067402 -1.743038039 -1.701399568 -1.658771059 -1.615512967 -1.571798946 -1.527713215 -1.483350795 -1.438898156 -1.394676616 -1.351139589 -1.308825619 -1.268279532 -1.229961507 -1.194166367 -1.160972638 -1.130233642 -1.10161335 -1.074660087 -1.048903765 -1.023958356 -0.9996113662 -0.9758857793 -0.953066073 -0.9316869397 -0.9124892916 -0.8963517799 -0.8842069675 -0.8769502847 -0.8753484794
-1.20182015 -1.210247889 -1.22025748 -1.231754747 -1.244610685 -1.258665784 -1.273736909 -1.289626104 -1.306130478 -1.323052358 -1.340208922 -1.35744066 -1.374618154 -1.391646826 -1.40846936 -1.425065613 -1.441449873 -1.45766538 -1.473776197 -1.489856666 -1.505978951 -1.52219944 -1.538545014 -1.555000366 -1.571497616 -1.587909386 -1.604046271 -1.619659295 -1.634447508 -1.648070412 -1.660164413 -1.670362141 -1.678313127 -1.683704195 -1.686277916 -1.685847609 -1.682307728 -1.675638872 -1.665907237 -1.653258846 -1.63790943 -1.620131192 -1.600237942 -1.57857007 -1.555480666 -1.531323728 -1.506444975 -1.481175278 -1.455826364 -1.430688136 -1.406026886 -1.382083737 -1.359072888 -1.337179554 -1.316557819 -1.297328869 -1.279580212 -1.263366483 -1.248712227 -1.235616767 -1.224060932 -1.214015032 -1.205447262 -1.198331532 -1.192653775 -1.188415915 -1.185636987 -1.18435122 -1.184603282 -1.186441236 -1.189908 -1.195032296
-1.425883253 -1.425883253 -1.425883253 -1.425883253 -1.425883253 -1.425883253 -1.425883253 -1.425883253 -1.425883253 -1.425883253 -1.425883253 -1.425883253 -1.425883253 -1.425883253 -1.425883253 -1.425883253 -1.425883253 -1.425883253 -1.425883253 -1.425883253 -1.425883253 -1.425883253 -1.425883253 -1.425883253 -1.425883253 -1.425883253 -1.425883253 -1.425883253 -1.425883253 -1.425883253 -1.425883253 -1.425883253 -1.425883253 -1.425883253 -1.425883253 -1.425883253 -1.425883253 -1.425883253 -1.425883253 -1.425883253 -1.425883253 -1.425883253 -1.425883253 -1.425883253 -1.425883253 -1.425883253 -1.425883253 -1.425883253 -1.425883253 -1.425883253 -1.425883253 -1.425883253 -1.425883253 -1.425883253 -1.425883253 -1.425883253 -1.425883253 -1.425883253 -1.425883253 -1.425883253 -1.425883253 -1.425883253 -1.425883253 -1.425883253 -1.425883253 -1.425883253 -1.425883253 -1.425883253 -1.425883253 -1.425883253 -1.425883253 -1.425883253
